X: 35419
T: Round The House And Mind The Dresser
R: reel
M: 4/4
K: Gmajor
|:{F}G3F GBdB|GBdB AGEG|DGGF GABd|1 ecAB cABA:|2 eAAB c2Bc||
dcBc dcBc|dcBd cA (3AAA|dcBc dgfg|ecAB c2Bc|
dcBc dcBc|dcBd cA (3AAA|defg afge|dcAG FGAF|
|:Gggf ~g2 dg|~g2 dg fdcA|Gggf gabg|1 aAAB cABA:|2 aAAB c2 BA||

